icons/svgs/info-circle-outline.svg

<svg width="24" height="24" viewBox="0 0 24 24" fill="none" xmlns="http://www.w3.org/2000/svg">
<path d="M12 3.875C9.07031 3.875 6.41406 5.4375 4.92969 7.9375C3.48438 10.4766 3.48438 13.5625 4.92969 16.0625C6.41406 18.6016 9.07031 20.125 12 20.125C14.8906 20.125 17.5469 18.6016 19.0312 16.0625C20.4766 13.5625 20.4766 10.4766 19.0312 7.9375C17.5469 5.4375 14.8906 3.875 12 3.875ZM12 22C8.40625 22 5.125 20.125 3.32812 17C1.53125 13.9141 1.53125 10.125 3.32812 7C5.125 3.91406 8.40625 2 12 2C15.5547 2 18.8359 3.91406 20.6328 7C22.4297 10.125 22.4297 13.9141 20.6328 17C18.8359 20.125 15.5547 22 12 22ZM10.4375 15.125H11.375V12.625H10.4375C9.89062 12.625 9.5 12.2344 9.5 11.6875C9.5 11.1797 9.89062 10.75 10.4375 10.75H12.3125C12.8203 10.75 13.25 11.1797 13.25 11.6875V15.125H13.5625C14.0703 15.125 14.5 15.5547 14.5 16.0625C14.5 16.6094 14.0703 17 13.5625 17H10.4375C9.89062 17 9.5 16.6094 9.5 16.0625C9.5 15.5547 9.89062 15.125 10.4375 15.125ZM12 9.5C11.2969 9.5 10.75 8.95312 10.75 8.25C10.75 7.58594 11.2969 7 12 7C12.6641 7 13.25 7.58594 13.25 8.25C13.25 8.95312 12.6641 9.5 12 9.5Z" fill="black"/>
</svg>

<svg xmlns="http://www.w3.org/2000/svg" width="24" height="24" fill="currentColor" class="icon-info-circle-outline" viewBox="0 0 24 24">
  <mask id="a" width="21" height="20" x="1" y="2" maskUnits="userSpaceOnUse" style="mask-type:alpha">
    <path d="M12 3.875c-2.93 0-5.586 1.563-7.07 4.063-1.446 2.539-1.446 5.625 0 8.125A8.13 8.13 0 0 0 12 20.125c2.89 0 5.547-1.523 7.031-4.062 1.446-2.5 1.446-5.586 0-8.125-1.484-2.5-4.14-4.063-7.031-4.063M12 22c-3.594 0-6.875-1.875-8.672-5-1.797-3.086-1.797-6.875 0-10C5.125 3.914 8.406 2 12 2c3.555 0 6.836 1.914 8.633 5 1.797 3.125 1.797 6.914 0 10A9.93 9.93 0 0 1 12 22m-1.562-6.875h.937v-2.5h-.937c-.547 0-.938-.39-.938-.937 0-.508.39-.938.938-.938h1.874a.95.95 0 0 1 .938.938v3.437h.313a.95.95 0 0 1 .937.938c0 .546-.43.937-.937.937h-3.126c-.546 0-.937-.39-.937-.937 0-.508.39-.938.938-.938M12 9.5c-.703 0-1.25-.547-1.25-1.25 0-.664.547-1.25 1.25-1.25.664 0 1.25.586 1.25 1.25 0 .703-.586 1.25-1.25 1.25"/>
  </mask>
  <g mask="url(#a)">
    <path d="M0 0h24v24H0z"/>
  </g>
</svg>
